X: 39362
T: Tammie Anderson
R: reel
M: 4/4
K: Dmajor
u(FE)|D2FA (BA) FD|G2GBd2cB|A2a2gf ed|ef ec AG FE|D2FA (BA) FD|G2GBd2 cB
A(a^ga) =ge cA|d6:|(fg)|a2 (^ga) f d2z|uggzud B2 (dB)|A2 a2 gf ed|ef ec
A2 (fg)|a2 (^ga) f d2z|uggzud B2 (dB)|A(a ^ga) =ge BA|d3 (fg)|a2 (^ga) f
d2z|uggzud B2 (dB)|A2 a2 gf ed|ef ec AGFE|D2 FA (BA) FD|G2 GB d2 cB|A(a
^ga) =ge cA|d6||

